X:55
T:Dumble Down Deary
S:John Moore's Book 2
Z:Transcribed Steve Mansfield 04/2021
%%VWML: Moore2-4494-p41-0
F:http://www.vwml.org/record/Moore2/4494/p41
M:6/8
L:1/8
N:Rest editorial
K:G
"*"z | GFG B2B | AGA G3 | B(AB d2)d | cBc B2 :|
|: G/B/ |d2Bd2B | d2d d(gf) | e2c cBA | d2c B2A |
GFG B2A | GFG B2A | GFG Aed | cBA G2 :|

